img/optimize.svg

<svg xmlns="http://www.w3.org/2000/svg" viewBox="0 0 502.686 502.686"><path d="M114.562 219.515H0v63.634h114.562v-63.634zm105.007 283.16h63.612V388.134h-63.612v114.541zm168.554-283.16v63.634h114.562v-63.634H388.123zM219.569 114.552h63.612V.011h-63.612v114.541zM51.144 406.577l44.997 45.018 80.977-80.998-44.997-44.997-80.977 80.977zm0-310.468l80.977 80.977 44.997-44.975-80.977-80.999-44.997 44.997zm274.467 274.445l80.955 80.977 45.04-44.953-81.063-81.02-44.932 44.996z" fill="#010002"/></svg>

<?xml version="1.0" encoding="iso-8859-1"?>
<!-- Generator: Adobe Illustrator 19.0.0, SVG Export Plug-In . SVG Version: 6.00 Build 0)  -->
<svg version="1.1" id="Capa_1" xmlns="http://www.w3.org/2000/svg" xmlns:xlink="http://www.w3.org/1999/xlink" x="0px" y="0px"
	 viewBox="0 0 502.686 502.686" style="enable-background:new 0 0 502.686 502.686;" xml:space="preserve">
<g>
	<g>
		<path style="fill:#010002;" d="M114.562,219.515H0v63.634h114.562V219.515z M219.569,502.675h63.612V388.134h-63.612
			C219.569,388.134,219.569,502.675,219.569,502.675z M388.123,219.515v63.634h114.562v-63.634H388.123z M219.569,114.552h63.612
			V0.011h-63.612C219.569,0.011,219.569,114.552,219.569,114.552z M51.144,406.577l44.997,45.018l80.977-80.998L132.121,325.6
			C132.121,325.6,51.144,406.577,51.144,406.577z M51.144,96.109l80.977,80.977l44.997-44.975L96.141,51.112L51.144,96.109z
			 M325.611,370.554l80.955,80.977l45.04-44.953l-81.063-81.02L325.611,370.554z"/>
	</g>
	<g>
	</g>
	<g>
	</g>
	<g>
	</g>
	<g>
	</g>
	<g>
	</g>
	<g>
	</g>
	<g>
	</g>
	<g>
	</g>
	<g>
	</g>
	<g>
	</g>
	<g>
	</g>
	<g>
	</g>
	<g>
	</g>
	<g>
	</g>
	<g>
	</g>
</g>
<g>
</g>
<g>
</g>
<g>
</g>
<g>
</g>
<g>
</g>
<g>
</g>
<g>
</g>
<g>
</g>
<g>
</g>
<g>
</g>
<g>
</g>
<g>
</g>
<g>
</g>
<g>
</g>
<g>
</g>
</svg>
